src/img/sticker.svg

<svg width="86" height="54" viewBox="0 0 86 54" fill="none" xmlns="http://www.w3.org/2000/svg">
<g clip-path="url(#clip0_1421_4)">
<path d="M55.6812 5.98389H55.3896V8.12443H55.4868C56.2156 8.12443 56.6043 7.88118 56.6043 7.10281C56.6043 6.42172 56.41 5.98389 55.6812 5.98389Z" fill="black"/>
<path d="M65.9818 6.03247C65.7874 6.03247 65.5931 6.08112 65.3987 6.27571C65.2044 6.47031 64.8643 7.00544 64.8643 8.6595C64.8643 10.3136 65.253 10.8487 65.3987 11.0433C65.5931 11.2379 65.7874 11.2865 65.9818 11.2865C66.1761 11.2865 66.3705 11.2379 66.5648 11.0433C66.7592 10.8487 67.0993 10.3136 67.0993 8.6595C67.0993 7.00544 66.7592 6.47031 66.5648 6.27571C66.4191 6.12977 66.1761 6.03247 65.9818 6.03247Z" fill="black"/>
<path d="M0 0V15.0811H86V0H0ZM24.4881 2.43243C24.5367 2.62703 24.6339 2.82162 24.7797 2.91892C24.8768 3.01622 25.0226 3.11351 25.3141 3.11351C25.6056 3.11351 25.7514 3.01622 25.8486 2.91892C25.9944 2.82162 26.0915 2.57838 26.0915 2.43243L27.3062 2.82162C27.1605 3.30811 26.8689 3.64865 26.626 3.84324C26.1887 4.13514 25.5571 4.18378 25.3141 4.18378C25.0712 4.18378 24.4881 4.18378 24.0023 3.84324C23.7593 3.64865 23.4192 3.30811 23.322 2.82162L24.4881 2.43243ZM9.18305 6.17838H7.57966V12.7946H5.97627V4.67027H9.18305V6.17838ZM17.6373 12.7946H14.3819V4.67027H17.5887V6.17838H16.0339V7.92973H17.4429V9.43784H16.0339V11.2378H17.6859V12.7946H17.6373ZM27.6949 12.7946H26.1401V9.24324C26.1401 8.56216 26.1887 8.02703 26.2373 7.73514L24.4395 12.7946H22.9819V4.67027H24.5367V8.17297C24.5367 8.61081 24.4881 9.14595 24.391 9.63243L26.2373 4.67027H27.6949V12.7946ZM38.4328 12.7946L38.0441 6.95676C37.9955 7.58919 37.8983 8.22162 37.8011 8.80541L37.0723 12.7459H35.8576L35.1288 9.0973C35.0316 8.70811 34.9831 8.31892 34.9345 7.88108L34.8373 6.95676L34.5943 12.7946H32.8938L33.574 4.67027H35.6633L36.4407 9.43784L37.0723 4.67027H39.2102L40.0362 12.7946H38.4328ZM48.4904 12.7946H45.235V4.67027H48.4418V6.17838H46.8384V7.92973H48.2475V9.43784H46.8384V11.2378H48.4904V12.7946ZM55.3898 9.48649V12.7946H53.7864V4.67027H55.7299C56.2158 4.67027 56.6531 4.67027 57.0904 4.91351C57.8192 5.35135 58.2079 6.22703 58.2079 7.05405C58.2079 8.80541 56.9932 9.58378 55.3898 9.48649ZM67.8282 12.1135C67.1966 12.7946 66.4678 12.9405 65.9819 12.9405C65.496 12.9405 64.7672 12.7946 64.1356 12.1135C63.261 11.1892 63.1638 9.82703 63.1638 8.75676C63.1638 7.68649 63.261 6.32432 64.1356 5.4C64.7672 4.71892 65.496 4.57297 65.9819 4.57297C66.4678 4.57297 67.1966 4.71892 67.8282 5.4C68.7028 6.32432 68.8 7.68649 68.8 8.75676C68.8486 9.82703 68.7514 11.1892 67.8282 12.1135ZM79.4893 12.7946L79.1006 6.95676C79.052 7.58919 78.9548 8.22162 78.8576 8.80541L78.1288 12.7459H76.9141L76.1853 9.0973C76.0881 8.70811 75.991 8.31892 75.991 7.88108L75.8938 6.95676L75.6508 12.7946H73.9503L74.6305 4.67027H76.7198L77.4972 9.43784L78.1288 4.67027H80.2667L81.0927 12.7946H79.4893Z" fill="black"/>
<path d="M13.9936 35.1729C13.8479 32.6918 13.6535 30.2107 13.5564 27.7783C13.5078 26.9999 13.4592 26.2216 13.4592 25.3945C13.4106 24.5675 13.5078 23.7405 13.362 22.9134C12.7304 27.0486 11.8558 31.0864 11.0784 35.1729H9.475C8.60042 31.0864 7.62867 27.0486 7.14279 22.9134L6.46257 35.1729H4.22754L5.68517 17.3188H7.72584L9.28065 24.6161C9.37782 25.054 9.475 25.4918 9.57217 25.881C9.81511 27.3405 10.058 28.7513 10.2524 30.2107C10.301 29.3351 10.4953 28.508 10.6411 27.681C10.7383 27.0486 10.8354 26.3675 10.9326 25.7351C11.0298 25.2972 11.127 24.908 11.1756 24.4702L12.5846 17.3188H14.6739L16.3258 35.1729H13.9936Z" fill="black"/>
<path d="M31.1934 34.2973C30.3188 35.173 29.2499 35.4162 28.3268 35.4162C26.9663 35.4162 26.0431 34.9297 25.4601 34.2973C23.8081 32.5946 23.7109 28.946 23.7109 26.3189C23.7109 23.5946 23.8081 19.8973 25.4601 18.1946C26.0917 17.5622 26.9663 17.0757 28.3268 17.0757C29.6872 17.0757 30.5618 17.5622 31.1934 18.1946C32.8454 19.8487 32.9426 23.4973 32.9426 26.2703C32.9426 28.8973 32.8454 32.5946 31.1934 34.2973ZM27.1607 32.7406C27.5008 33.0811 27.8895 33.1784 28.3268 33.1784C28.7155 33.1784 29.1042 33.0811 29.4443 32.7406C29.9301 32.2541 30.416 31.0865 30.416 26.6595V25.346C30.416 21.2108 29.833 20.0919 29.4443 19.7027C29.1042 19.3622 28.7155 19.2649 28.3268 19.2649C27.8895 19.2649 27.5494 19.3622 27.1607 19.7027C26.772 20.0919 26.1889 21.2108 26.1889 25.346V26.6595C26.1889 31.0865 26.6748 32.2541 27.1607 32.7406Z" fill="black"/>
<path d="M50.8233 35.1729L47.7137 26.3675V35.1729H45.3815V26.3675L42.2719 35.1729H39.7939L43.3408 25.9783L39.9883 17.3188H42.2719L45.3815 25.5405V17.3188H47.7137V25.5405L50.8233 17.3188H53.1555L49.803 25.9783L53.3499 35.1729H50.8233Z" fill="black"/>
<path d="M60.541 35.1729V17.3188H66.906V19.3621H62.9218V25.054H66.4687V27.0972H62.9218V33.1783H66.906V35.2216H60.541V35.1729Z" fill="black"/>
<path d="M79.1007 19.4107V35.1243H76.7685V19.4107H73.999V17.3188H81.8216V19.4107H79.1007Z" fill="black"/>
<path d="M69.5291 45.8757L69.4805 48.6487H69.5291C69.772 48.6487 70.1607 48.6487 70.4036 48.4055C70.6952 48.1136 70.6952 47.5784 70.6952 47.2865C70.6952 46.946 70.6952 46.3622 70.355 46.0703C70.1607 45.8757 69.772 45.8757 69.5291 45.8757Z" fill="black"/>
<path d="M46.207 47.1893H47.4703C47.2274 45.8271 46.9844 44.4649 46.8387 43.1028C46.6929 44.4649 46.45 45.8271 46.207 47.1893Z" fill="black"/>
<path d="M27.5007 45.8757L27.4521 48.6487H27.5007C27.7437 48.6487 28.1324 48.6487 28.3753 48.4055C28.6668 48.1622 28.6668 47.5784 28.6668 47.2865C28.6668 46.9946 28.6668 46.4109 28.3267 46.119C28.0838 45.8757 27.7437 45.8757 27.5007 45.8757Z" fill="black"/>
<path d="M62.2889 45.4378C62.2889 46.8973 62.1917 47.3838 62.0945 47.6757C61.9488 48.1622 61.6572 48.5027 61.4629 48.6487H63.6493V42.4216H62.2889V45.4378Z" fill="black"/>
<path d="M13.1668 45.8757L13.1182 48.6487H13.1668C13.4097 48.6487 13.7984 48.6487 14.0413 48.4055C14.3329 48.1136 14.3329 47.5784 14.3329 47.2865C14.3329 46.946 14.3329 46.3622 13.9927 46.0703C13.7498 45.8757 13.4097 45.8757 13.1668 45.8757Z" fill="black"/>
<path d="M0 37.4595V54H86V37.4595H0ZM78.0316 39.5514C78.0802 39.6973 78.1774 39.8919 78.2746 39.9892C78.4203 40.1351 78.6633 40.1838 78.809 40.1838C79.0034 40.1838 79.1977 40.1838 79.3435 39.9892C79.4893 39.8919 79.5864 39.6973 79.5864 39.5514L80.5096 39.9406C80.3638 40.3297 80.1695 40.573 79.878 40.7676C79.5378 41.0108 79.1491 41.0595 78.809 41.0595C78.4689 41.0595 78.0802 41.0108 77.7401 40.7676C77.4972 40.6216 77.2542 40.3297 77.1085 39.9406L78.0316 39.5514ZM8.2113 49.1351C7.96836 49.3784 7.57966 49.6216 6.85085 49.6216H5.34463V41.4973H8.30847V42.4216H6.41356V44.9514H6.60791C6.99661 44.9514 7.72542 45 8.2113 45.4865C8.69718 45.973 8.74576 46.7514 8.74576 47.3351C8.74576 47.9189 8.69718 48.6487 8.2113 49.1351ZM14.9164 49.1351C14.6734 49.3784 14.2847 49.6216 13.5559 49.6216H12.0497V41.4973H13.1186V44.9514H13.2644C13.7989 44.9514 14.4305 45 14.9164 45.4865C15.4023 45.973 15.4508 46.7514 15.4508 47.2865C15.4508 47.8703 15.4023 48.6487 14.9164 49.1351ZM17.0542 49.573H15.9853V41.4973H17.0542V49.573ZM23.4678 42.4703H22.2531V49.6216H21.1842V42.4703H19.9209V41.4973H23.4678V42.4703ZM29.2983 49.1351C29.0554 49.3784 28.6181 49.6216 27.9379 49.6216H26.383V41.4973H27.452V44.9514H27.5977C28.0836 44.9514 28.7638 45 29.2497 45.4865C29.7356 45.973 29.7842 46.7514 29.7842 47.3351C29.7842 47.9189 29.7356 48.6487 29.2983 49.1351ZM40.8136 49.573L39.3073 45.5838V49.573H38.2384V41.4973H39.3073V45.1946L40.8136 41.4973H41.9311L40.2791 45.4379L42.0282 49.6216H40.8136V49.573ZM47.9559 49.573L47.6158 48.0162H46.0124L45.7209 49.573H44.652L46.4011 41.4487H47.2757L48.9763 49.573H47.9559ZM56.5073 49.573L55.0983 45.5838V49.573H54.0294V45.5838L52.6203 49.573H51.5028L53.1062 45.3892L51.6 41.4487H52.6689L54.078 45.1946V41.4487H55.1469V45.2433L56.5559 41.4973H57.6249L56.1186 45.4379L57.722 49.6216H56.5073V49.573ZM65.3989 51.1784H64.4271V49.6216H61.2203V51.1784H60.2486V48.6487C60.6373 48.4541 60.8316 48.2108 60.9288 48.0162C61.2203 47.5784 61.3175 46.8973 61.3175 45.7784V41.4487H64.7672V48.6487H65.3989V51.1784ZM71.278 49.1351C71.035 49.3784 70.6463 49.6216 69.9175 49.6216H68.4113V41.4973H69.5288V44.9514H69.6746C70.209 44.9514 70.8407 45 71.3266 45.4865C71.8124 45.973 71.861 46.7514 71.861 47.2865C71.8124 47.8703 71.7638 48.6487 71.278 49.1351ZM73.4158 49.573H72.2983V41.4973H73.4158V49.573ZM80.704 49.573H79.635V45.973C79.635 45.3406 79.7808 43.9784 79.8294 43.346C79.5378 44.3189 79.4407 44.8541 79.1977 45.5351L77.8859 49.573H76.9141V41.4973H77.983V44.8054C77.983 45.4379 77.9345 46.6054 77.7401 47.6757C78.0802 46.6054 78.1774 46.1676 78.4689 45.2433L79.6836 41.4973H80.6554V49.573H80.704Z" fill="black"/>
<path d="M6.5105 45.8757H6.46191V48.6487H6.55909C6.75344 48.6487 7.14214 48.6487 7.38508 48.4055C7.62802 48.1622 7.6766 47.7244 7.6766 47.2865C7.6766 46.8974 7.62802 46.3622 7.33649 46.119C7.09355 45.973 6.80203 45.8757 6.5105 45.8757Z" fill="black"/>
</g>
<defs>
<clipPath id="clip0_1421_4">
<rect width="86" height="54" fill="white"/>
</clipPath>
</defs>
</svg>

<svg width="86" height="54" fill="none" xmlns="http://www.w3.org/2000/svg"><path d="M55.681 5.984h-.291v2.14h.097c.729 0 1.117-.243 1.117-1.021 0-.681-.194-1.12-.923-1.12ZM65.982 6.032a.77.77 0 0 0-.583.244c-.195.194-.535.73-.535 2.383 0 1.655.389 2.19.535 2.384a.77.77 0 0 0 .583.244.769.769 0 0 0 .583-.244c.194-.194.534-.73.534-2.383 0-1.655-.34-2.19-.534-2.384a.896.896 0 0 0-.583-.244Z" fill="#000"/><path d="M0 0v15.081h86V0H0Zm24.488 2.432c.049.195.146.39.292.487.097.097.243.195.534.195.292 0 .437-.098.535-.195.145-.097.242-.34.242-.487l1.215.39a2.088 2.088 0 0 1-.68 1.021c-.437.292-1.069.34-1.312.34-.243 0-.826 0-1.312-.34-.243-.194-.583-.535-.68-1.021l1.166-.39ZM9.183 6.178H7.58v6.617H5.976V4.67h3.207v1.508Zm8.454 6.617h-3.255V4.67h3.207v1.508h-1.555V7.93h1.409v1.508h-1.41v1.8h1.653v1.557h-.049Zm10.058 0H26.14V9.243c0-.68.049-1.216.097-1.508l-1.797 5.06h-1.458V4.67h1.555v3.503c0 .438-.049.973-.146 1.46l1.846-4.963h1.458v8.125Zm10.738 0-.389-5.838a21.258 21.258 0 0 1-.243 1.848l-.729 3.94h-1.214l-.73-3.648a9.089 9.089 0 0 1-.194-1.216l-.097-.924-.243 5.838h-1.7l.68-8.125h2.09l.777 4.768.631-4.768h2.138l.826 8.125h-1.603Zm10.057 0h-3.255V4.67h3.207v1.508h-1.604V7.93h1.41v1.508h-1.41v1.8h1.652v1.557Zm6.9-3.309v3.309h-1.604V4.67h1.944c.486 0 .923 0 1.36.244.73.437 1.118 1.313 1.118 2.14 0 1.751-1.215 2.53-2.818 2.432Zm12.438 2.627a2.481 2.481 0 0 1-1.846.828 2.481 2.481 0 0 1-1.846-.828c-.875-.924-.972-2.286-.972-3.356 0-1.07.097-2.433.972-3.357a2.481 2.481 0 0 1 1.846-.827c.486 0 1.215.146 1.846.827.875.924.972 2.286.972 3.357.049 1.07-.049 2.432-.972 3.357Zm11.661.682-.388-5.838a21.258 21.258 0 0 1-.243 1.848l-.73 3.94h-1.214l-.729-3.648c-.097-.389-.194-.778-.194-1.216l-.097-.924-.243 5.838h-1.7l.68-8.125h2.089l.777 4.768.632-4.768h2.138l.826 8.125h-1.604ZM13.994 35.173c-.146-2.481-.34-4.962-.438-7.395-.048-.778-.097-1.556-.097-2.383-.048-.828.049-1.654-.097-2.482-.632 4.136-1.506 8.173-2.284 12.26H9.475c-.875-4.087-1.846-8.124-2.332-12.26l-.68 12.26H4.228l1.457-17.854h2.04l1.556 7.297c.097.438.194.876.291 1.265.243 1.46.486 2.87.68 4.33.049-.876.243-1.703.39-2.53.096-.632.193-1.314.29-1.946.098-.438.195-.827.244-1.265l1.409-7.151h2.089l1.652 17.854h-2.332ZM31.193 34.297c-.874.876-1.943 1.12-2.866 1.12-1.36 0-2.284-.487-2.867-1.12-1.652-1.702-1.75-5.351-1.75-7.978 0-2.724.098-6.422 1.75-8.124.632-.633 1.506-1.12 2.867-1.12 1.36 0 2.235.487 2.866 1.12 1.652 1.654 1.75 5.302 1.75 8.075 0 2.627-.098 6.325-1.75 8.027Zm-4.032-1.556c.34.34.729.437 1.166.437.388 0 .777-.097 1.117-.437.486-.487.972-1.654.972-6.081v-1.314c0-4.135-.583-5.254-.972-5.643-.34-.34-.729-.438-1.117-.438-.438 0-.778.097-1.166.438-.389.389-.972 1.508-.972 5.643v1.314c0 4.427.486 5.594.972 6.08ZM50.823 35.173l-3.11-8.806v8.806h-2.331v-8.806l-3.11 8.806h-2.478l3.547-9.195-3.353-8.66h2.284l3.11 8.223v-8.222h2.332v8.222l3.11-8.222h2.332l-3.353 8.66 3.547 9.194h-2.527ZM60.541 35.173V17.319h6.365v2.043h-3.984v5.692h3.547v2.043h-3.547v6.081h3.984v2.044h-6.365v-.05ZM79.1 19.41v15.714H76.77V19.411h-2.77v-2.092h7.823v2.092H79.1ZM69.53 45.876l-.05 2.773h.05c.242 0 .63 0 .874-.243.291-.292.291-.828.291-1.12 0-.34 0-.924-.34-1.216-.194-.194-.583-.194-.826-.194ZM46.207 47.19h1.263c-.243-1.363-.486-2.725-.631-4.087-.146 1.362-.389 2.724-.632 4.086ZM27.5 45.876l-.048 2.773h.049c.243 0 .631 0 .874-.243.292-.244.292-.828.292-1.12 0-.291 0-.875-.34-1.167-.243-.243-.583-.243-.826-.243ZM62.289 45.438c0 1.46-.097 1.946-.195 2.238-.145.486-.437.827-.631.973h2.186v-6.227h-1.36v3.016ZM13.167 45.876l-.049 2.773h.049c.243 0 .631 0 .874-.243.292-.292.292-.828.292-1.12 0-.34 0-.924-.34-1.216-.243-.194-.583-.194-.826-.194Z" fill="#000"/><path d="M0 37.46V54h86V37.46H0Zm78.032 2.091c.048.146.145.34.243.438.145.146.388.195.534.195.194 0 .389 0 .535-.195a.58.58 0 0 0 .242-.438l.924.39c-.146.389-.34.632-.632.827-.34.243-.729.291-1.069.291-.34 0-.729-.048-1.069-.291-.243-.146-.486-.438-.631-.827l.923-.39Zm-69.82 9.584c-.244.243-.632.487-1.361.487H5.345v-8.125h2.963v.925H6.414v2.53h.194c.389 0 1.117.048 1.603.535.486.486.535 1.264.535 1.848 0 .584-.049 1.314-.535 1.8Zm6.704 0c-.243.243-.631.487-1.36.487H12.05v-8.125h1.069v3.454h.145c.535 0 1.167.049 1.652.535.486.487.535 1.265.535 1.8 0 .584-.049 1.363-.535 1.85Zm2.138.438h-1.069v-8.076h1.07v8.076Zm6.414-7.103h-1.215v7.152h-1.069V42.47h-1.263v-.973h3.547v.973Zm5.83 6.665c-.243.243-.68.487-1.36.487h-1.555v-8.125h1.069v3.454h.146c.486 0 1.166.049 1.652.535.486.487.534 1.265.534 1.85 0 .583-.048 1.313-.486 1.8Zm11.516.438-1.507-3.99v3.99h-1.069v-8.076h1.07v3.698l1.506-3.698h1.117l-1.652 3.94 1.75 4.185h-1.215v-.049Zm7.142 0-.34-1.557h-1.604l-.291 1.557h-1.069l1.75-8.124h.874l1.7 8.124h-1.02Zm8.551 0-1.409-3.99v3.99H54.03v-3.99l-1.409 3.99h-1.117l1.603-4.184-1.506-3.94h1.069l1.409 3.746v-3.746h1.069v3.794l1.409-3.746h1.069l-1.506 3.94 1.603 4.185h-1.215v-.049Zm8.892 1.605h-.972v-1.556H61.22v1.556h-.971v-2.53c.388-.194.583-.437.68-.632.291-.438.389-1.119.389-2.238v-4.33h3.45v7.2h.63v2.53Zm5.879-2.043c-.243.243-.632.487-1.36.487H68.41v-8.125h1.118v3.454h.146c.534 0 1.166.049 1.652.535.485.487.534 1.265.534 1.8-.049.584-.097 1.363-.583 1.85Zm2.138.438h-1.118v-8.076h1.118v8.076Zm7.288 0h-1.069v-3.6c0-.632.146-1.995.194-2.627-.291.973-.388 1.508-.631 2.19l-1.312 4.037h-.972v-8.076h1.069v3.308c0 .633-.049 1.8-.243 2.87.34-1.07.437-1.507.729-2.432l1.215-3.746h.971v8.076h.049Z" fill="#000"/><path d="M6.51 45.876h-.048v2.773h.097c.194 0 .583 0 .826-.243.243-.244.292-.682.292-1.12 0-.389-.049-.924-.34-1.167a1.636 1.636 0 0 0-.826-.243Z" fill="#000"/></svg>
